icon/fb.svg

<svg width="37" height="37" viewBox="0 0 37 37" fill="none" xmlns="http://www.w3.org/2000/svg">
<path d="M21.2508 20.4919H25.0456L26.5635 14.4203H21.2508V11.3844C21.2508 9.82098 21.2508 8.3486 24.2866 8.3486H26.5635V3.2484C26.0687 3.18313 24.2001 3.03589 22.2268 3.03589C18.1057 3.03589 15.1791 5.55108 15.1791 10.1701V14.4203H10.6254V20.4919H15.1791V33.3942H21.2508V20.4919Z" fill="#0F4E6D"/>
</svg>

<?xml version="1.0" encoding="UTF-8"?>
<svg fill="none" viewBox="0 0 37 37" xmlns="http://www.w3.org/2000/svg">
<path d="m21.251 20.492h3.7948l1.5179-6.0716h-5.3127v-3.0359c0-1.5634 0-3.0358 3.0358-3.0358h2.2769v-5.1002c-0.4948-0.06527-2.3634-0.21251-4.3367-0.21251-4.1211 0-7.0477 2.5152-7.0477 7.1342v4.2502h-4.5537v6.0716h4.5537v12.902h6.0717v-12.902z" fill="#0F4E6D"/>
</svg>
